images/3234309.svg

<?xml version="1.0" encoding="UTF-8"?>
<svg xmlns="http://www.w3.org/2000/svg" xmlns:xlink="http://www.w3.org/1999/xlink" width="300pt" height="300pt" viewBox="0 0 300 300" version="1.1">
<defs>
<g>
<symbol overflow="visible" id="glyph0-0">
<path style="stroke:none;" d="M 0.546875 1.9375 L 0.546875 -7.75 L 6.046875 -7.75 L 6.046875 1.9375 Z M 1.171875 1.328125 L 5.4375 1.328125 L 5.4375 -7.140625 L 1.171875 -7.140625 Z M 1.171875 1.328125 "/>
</symbol>
<symbol overflow="visible" id="glyph0-1">
<path style="stroke:none;" d="M 4.328125 -7.28125 C 3.546875 -7.28125 2.921875 -6.984375 2.453125 -6.390625 C 1.992188 -5.804688 1.765625 -5.007812 1.765625 -4 C 1.765625 -2.988281 1.992188 -2.1875 2.453125 -1.59375 C 2.921875 -1.007812 3.546875 -0.71875 4.328125 -0.71875 C 5.117188 -0.71875 5.742188 -1.007812 6.203125 -1.59375 C 6.660156 -2.1875 6.890625 -2.988281 6.890625 -4 C 6.890625 -5.007812 6.660156 -5.804688 6.203125 -6.390625 C 5.742188 -6.984375 5.117188 -7.28125 4.328125 -7.28125 Z M 4.328125 -8.171875 C 5.453125 -8.171875 6.351562 -7.789062 7.03125 -7.03125 C 7.707031 -6.28125 8.046875 -5.269531 8.046875 -4 C 8.046875 -2.738281 7.707031 -1.726562 7.03125 -0.96875 C 6.351562 -0.21875 5.453125 0.15625 4.328125 0.15625 C 3.203125 0.15625 2.300781 -0.21875 1.625 -0.96875 C 0.957031 -1.71875 0.625 -2.726562 0.625 -4 C 0.625 -5.269531 0.957031 -6.28125 1.625 -7.03125 C 2.300781 -7.789062 3.203125 -8.171875 4.328125 -8.171875 Z M 4.328125 -8.171875 "/>
</symbol>
<symbol overflow="visible" id="glyph0-2">
<path style="stroke:none;" d="M 1.078125 -8.015625 L 2.546875 -8.015625 L 6.09375 -1.3125 L 6.09375 -8.015625 L 7.15625 -8.015625 L 7.15625 0 L 5.6875 0 L 2.125 -6.703125 L 2.125 0 L 1.078125 0 Z M 1.078125 -8.015625 "/>
</symbol>
<symbol overflow="visible" id="glyph0-3">
<path style="stroke:none;" d="M 1.078125 -8.015625 L 2.171875 -8.015625 L 2.171875 -4.734375 L 6.109375 -4.734375 L 6.109375 -8.015625 L 7.1875 -8.015625 L 7.1875 0 L 6.109375 0 L 6.109375 -3.8125 L 2.171875 -3.8125 L 2.171875 0 L 1.078125 0 Z M 1.078125 -8.015625 "/>
</symbol>
<symbol overflow="visible" id="glyph0-4">
<path style="stroke:none;" d="M 1.078125 -8.015625 L 5.6875 -8.015625 L 5.6875 -7.109375 L 2.171875 -7.109375 L 2.171875 -4.75 L 5.34375 -4.75 L 5.34375 -3.828125 L 2.171875 -3.828125 L 2.171875 0 L 1.078125 0 Z M 1.078125 -8.015625 "/>
</symbol>
</g>
</defs>
<g id="surface53185">
<rect x="0" y="0" width="300" height="300" style="fill:rgb(100%,100%,100%);fill-opacity:1;stroke:none;"/>
<path style="fill:none;stroke-width:1.2;stroke-linecap:butt;stroke-linejoin:miter;stroke:rgb(0%,0%,0%);stroke-opacity:1;stroke-miterlimit:10;" d="M 35.25 158.902344 L 46.644531 152.628906 "/>
<path style="fill:none;stroke-width:1.2;stroke-linecap:butt;stroke-linejoin:miter;stroke:rgb(100%,0%,0%);stroke-opacity:1;stroke-miterlimit:10;" d="M 46.644531 152.628906 L 58.035156 146.355469 "/>
<path style="fill:none;stroke-width:1.2;stroke-linecap:butt;stroke-linejoin:miter;stroke:rgb(100%,0%,0%);stroke-opacity:1;stroke-miterlimit:10;" d="M 58.035156 146.355469 L 69.164062 153.085938 "/>
<path style="fill:none;stroke-width:1.2;stroke-linecap:butt;stroke-linejoin:miter;stroke:rgb(0%,0%,0%);stroke-opacity:1;stroke-miterlimit:10;" d="M 69.164062 153.085938 L 80.296875 159.8125 "/>
<path style=" stroke:none;fill-rule:nonzero;fill:rgb(100%,100%,100%);fill-opacity:1;" d="M 54.035156 139.855469 L 63.035156 139.855469 L 63.035156 152.855469 L 54.035156 152.855469 Z M 54.035156 139.855469 "/>
<g style="fill:rgb(100%,0%,0%);fill-opacity:1;">
  <use xlink:href="#glyph0-1" x="54.035156" y="149.756836"/>
</g>
<path style="fill:none;stroke-width:1.2;stroke-linecap:butt;stroke-linejoin:miter;stroke:rgb(0%,0%,0%);stroke-opacity:1;stroke-miterlimit:10;" d="M 80.296875 159.8125 L 103.082031 147.265625 "/>
<path style="fill:none;stroke-width:1.2;stroke-linecap:butt;stroke-linejoin:miter;stroke:rgb(0%,0%,0%);stroke-opacity:1;stroke-miterlimit:10;" d="M 103.082031 147.265625 L 114.210938 153.996094 "/>
<path style="fill:none;stroke-width:1.2;stroke-linecap:butt;stroke-linejoin:miter;stroke:rgb(0%,0%,100%);stroke-opacity:1;stroke-miterlimit:10;" d="M 114.210938 153.996094 L 125.339844 160.726562 "/>
<path style="fill:none;stroke-width:1.2;stroke-linecap:butt;stroke-linejoin:miter;stroke:rgb(0%,0%,100%);stroke-opacity:1;stroke-miterlimit:10;" d="M 125.339844 160.726562 L 136.734375 154.453125 "/>
<path style="fill:none;stroke-width:1.2;stroke-linecap:butt;stroke-linejoin:miter;stroke:rgb(0%,0%,0%);stroke-opacity:1;stroke-miterlimit:10;" d="M 136.734375 154.453125 L 148.125 148.175781 "/>
<path style=" stroke:none;fill-rule:nonzero;fill:rgb(100%,100%,100%);fill-opacity:1;" d="M 117.339844 154.226562 L 134.339844 154.226562 L 134.339844 167.226562 L 117.339844 167.226562 Z M 117.339844 154.226562 "/>
<g style="fill:rgb(0%,0%,100%);fill-opacity:1;">
  <use xlink:href="#glyph0-2" x="117.339844" y="164.12793"/>
  <use xlink:href="#glyph0-3" x="125.323242" y="164.12793"/>
</g>
<path style="fill:none;stroke-width:1.2;stroke-linecap:butt;stroke-linejoin:miter;stroke:rgb(0%,0%,0%);stroke-opacity:1;stroke-miterlimit:10;" d="M 148.125 148.175781 L 148.390625 135.175781 "/>
<path style="fill:none;stroke-width:1.2;stroke-linecap:butt;stroke-linejoin:miter;stroke:rgb(0%,0%,100%);stroke-opacity:1;stroke-miterlimit:10;" d="M 148.390625 135.175781 L 148.652344 122.171875 "/>
<path style="fill:none;stroke-width:1.2;stroke-linecap:butt;stroke-linejoin:miter;stroke:rgb(0%,0%,0%);stroke-opacity:1;stroke-miterlimit:10;" d="M 154.296875 145.699219 L 154.507812 135.296875 "/>
<path style="fill:none;stroke-width:1.2;stroke-linecap:butt;stroke-linejoin:miter;stroke:rgb(0%,0%,100%);stroke-opacity:1;stroke-miterlimit:10;" d="M 154.507812 135.296875 L 154.71875 124.894531 "/>
<path style="fill:none;stroke-width:1.2;stroke-linecap:butt;stroke-linejoin:miter;stroke:rgb(0%,0%,0%);stroke-opacity:1;stroke-miterlimit:10;" d="M 170.386719 161.636719 L 148.125 148.175781 "/>
<path style="fill:none;stroke-width:1.2;stroke-linecap:butt;stroke-linejoin:miter;stroke:rgb(0%,0%,100%);stroke-opacity:1;stroke-miterlimit:10;" d="M 148.652344 122.171875 L 160.046875 115.898438 "/>
<path style="fill:none;stroke-width:1.2;stroke-linecap:butt;stroke-linejoin:miter;stroke:rgb(0%,0%,0%);stroke-opacity:1;stroke-miterlimit:10;" d="M 160.046875 115.898438 L 171.4375 109.621094 "/>
<path style=" stroke:none;fill-rule:nonzero;fill:rgb(100%,100%,100%);fill-opacity:1;" d="M 144.652344 115.671875 L 152.652344 115.671875 L 152.652344 128.671875 L 144.652344 128.671875 Z M 144.652344 115.671875 "/>
<g style="fill:rgb(0%,0%,100%);fill-opacity:1;">
  <use xlink:href="#glyph0-2" x="144.652344" y="125.573242"/>
</g>
<path style="fill:none;stroke-width:1.2;stroke-linecap:butt;stroke-linejoin:miter;stroke:rgb(0%,0%,0%);stroke-opacity:1;stroke-miterlimit:10;" d="M 171.4375 109.621094 L 182.566406 116.351562 "/>
<path style="fill:none;stroke-width:1.2;stroke-linecap:butt;stroke-linejoin:miter;stroke:rgb(0%,0%,100%);stroke-opacity:1;stroke-miterlimit:10;" d="M 182.566406 116.351562 L 193.699219 123.082031 "/>
<path style="fill:none;stroke-width:1.2;stroke-linecap:butt;stroke-linejoin:miter;stroke:rgb(0%,0%,0%);stroke-opacity:1;stroke-miterlimit:10;" d="M 170.496094 116.207031 L 179.402344 121.589844 "/>
<path style="fill:none;stroke-width:1.2;stroke-linecap:butt;stroke-linejoin:miter;stroke:rgb(0%,0%,100%);stroke-opacity:1;stroke-miterlimit:10;" d="M 179.402344 121.589844 L 188.304688 126.972656 "/>
<path style="fill:none;stroke-width:1.2;stroke-linecap:butt;stroke-linejoin:miter;stroke:rgb(0%,0%,100%);stroke-opacity:1;stroke-miterlimit:10;" d="M 193.699219 123.082031 L 193.433594 136.085938 "/>
<path style="fill:none;stroke-width:1.2;stroke-linecap:butt;stroke-linejoin:miter;stroke:rgb(0%,0%,0%);stroke-opacity:1;stroke-miterlimit:10;" d="M 193.433594 136.085938 L 193.171875 149.089844 "/>
<path style=" stroke:none;fill-rule:nonzero;fill:rgb(100%,100%,100%);fill-opacity:1;" d="M 189.699219 116.582031 L 197.699219 116.582031 L 197.699219 129.582031 L 189.699219 129.582031 Z M 189.699219 116.582031 "/>
<g style="fill:rgb(0%,0%,100%);fill-opacity:1;">
  <use xlink:href="#glyph0-2" x="189.699219" y="126.483398"/>
</g>
<path style="fill:none;stroke-width:1.2;stroke-linecap:butt;stroke-linejoin:miter;stroke:rgb(0%,0%,0%);stroke-opacity:1;stroke-miterlimit:10;" d="M 193.171875 149.089844 L 170.386719 161.636719 "/>
<path style="fill:none;stroke-width:1.2;stroke-linecap:butt;stroke-linejoin:miter;stroke:rgb(0%,0%,0%);stroke-opacity:1;stroke-miterlimit:10;" d="M 187.941406 144.980469 L 169.710938 155.019531 "/>
<path style="fill:none;stroke-width:1.2;stroke-linecap:butt;stroke-linejoin:miter;stroke:rgb(0%,0%,0%);stroke-opacity:1;stroke-miterlimit:10;" d="M 193.171875 149.089844 L 215.429688 162.546875 "/>
<path style="fill:none;stroke-width:1.2;stroke-linecap:butt;stroke-linejoin:miter;stroke:rgb(0%,0%,0%);stroke-opacity:1;stroke-miterlimit:10;" d="M 215.429688 162.546875 L 214.90625 188.554688 "/>
<path style="fill:none;stroke-width:1.2;stroke-linecap:butt;stroke-linejoin:miter;stroke:rgb(0%,0%,0%);stroke-opacity:1;stroke-miterlimit:10;" d="M 221.496094 165.273438 L 221.078125 186.078125 "/>
<path style="fill:none;stroke-width:1.2;stroke-linecap:butt;stroke-linejoin:miter;stroke:rgb(0%,0%,0%);stroke-opacity:1;stroke-miterlimit:10;" d="M 238.21875 150 L 215.429688 162.546875 "/>
<path style="fill:none;stroke-width:1.2;stroke-linecap:butt;stroke-linejoin:miter;stroke:rgb(0%,0%,0%);stroke-opacity:1;stroke-miterlimit:10;" d="M 214.90625 188.554688 L 237.164062 202.015625 "/>
<path style="fill:none;stroke-width:1.2;stroke-linecap:butt;stroke-linejoin:miter;stroke:rgb(0%,0%,0%);stroke-opacity:1;stroke-miterlimit:10;" d="M 237.164062 202.015625 L 259.949219 189.464844 "/>
<path style="fill:none;stroke-width:1.2;stroke-linecap:butt;stroke-linejoin:miter;stroke:rgb(0%,0%,0%);stroke-opacity:1;stroke-miterlimit:10;" d="M 236.492188 195.398438 L 254.71875 185.359375 "/>
<path style="fill:none;stroke-width:1.2;stroke-linecap:butt;stroke-linejoin:miter;stroke:rgb(0%,0%,0%);stroke-opacity:1;stroke-miterlimit:10;" d="M 259.949219 189.464844 L 260.476562 163.460938 "/>
<path style="fill:none;stroke-width:1.2;stroke-linecap:butt;stroke-linejoin:miter;stroke:rgb(0%,0%,0%);stroke-opacity:1;stroke-miterlimit:10;" d="M 260.476562 163.460938 L 238.21875 150 "/>
<path style="fill:none;stroke-width:1.2;stroke-linecap:butt;stroke-linejoin:miter;stroke:rgb(0%,0%,0%);stroke-opacity:1;stroke-miterlimit:10;" d="M 255.082031 167.351562 L 237.277344 156.582031 "/>
<path style="fill:none;stroke-width:1.2;stroke-linecap:butt;stroke-linejoin:miter;stroke:rgb(0%,0%,0%);stroke-opacity:1;stroke-miterlimit:10;" d="M 238.21875 150 L 238.742188 123.992188 "/>
<path style="fill:none;stroke-width:1.2;stroke-linecap:butt;stroke-linejoin:miter;stroke:rgb(0%,0%,0%);stroke-opacity:1;stroke-miterlimit:10;" d="M 238.742188 123.992188 L 239.007812 110.988281 "/>
<path style="fill:none;stroke-width:1.2;stroke-linecap:butt;stroke-linejoin:miter;stroke:rgb(20%,80%,80%);stroke-opacity:1;stroke-miterlimit:10;" d="M 239.007812 110.988281 L 239.269531 97.984375 "/>
<path style="fill:none;stroke-width:1.2;stroke-linecap:butt;stroke-linejoin:miter;stroke:rgb(0%,0%,0%);stroke-opacity:1;stroke-miterlimit:10;" d="M 238.742188 123.992188 L 251.746094 124.257812 "/>
<path style="fill:none;stroke-width:1.2;stroke-linecap:butt;stroke-linejoin:miter;stroke:rgb(20%,80%,80%);stroke-opacity:1;stroke-miterlimit:10;" d="M 251.746094 124.257812 L 264.75 124.519531 "/>
<path style="fill:none;stroke-width:1.2;stroke-linecap:butt;stroke-linejoin:miter;stroke:rgb(0%,0%,0%);stroke-opacity:1;stroke-miterlimit:10;" d="M 238.742188 123.992188 L 225.738281 123.730469 "/>
<path style="fill:none;stroke-width:1.2;stroke-linecap:butt;stroke-linejoin:miter;stroke:rgb(20%,80%,80%);stroke-opacity:1;stroke-miterlimit:10;" d="M 225.738281 123.730469 L 212.734375 123.46875 "/>
<path style=" stroke:none;fill-rule:nonzero;fill:rgb(100%,100%,100%);fill-opacity:1;" d="M 236.269531 91.484375 L 243.269531 91.484375 L 243.269531 104.484375 L 236.269531 104.484375 Z M 236.269531 91.484375 "/>
<g style="fill:rgb(20%,80%,80%);fill-opacity:1;">
  <use xlink:href="#glyph0-4" x="236.269531" y="101.385742"/>
</g>
<path style=" stroke:none;fill-rule:nonzero;fill:rgb(100%,100%,100%);fill-opacity:1;" d="M 261.75 118.019531 L 268.75 118.019531 L 268.75 131.019531 L 261.75 131.019531 Z M 261.75 118.019531 "/>
<g style="fill:rgb(20%,80%,80%);fill-opacity:1;">
  <use xlink:href="#glyph0-4" x="261.75" y="127.920898"/>
</g>
<path style=" stroke:none;fill-rule:nonzero;fill:rgb(100%,100%,100%);fill-opacity:1;" d="M 205.734375 116.96875 L 212.734375 116.96875 L 212.734375 129.96875 L 205.734375 129.96875 Z M 205.734375 116.96875 "/>
<g style="fill:rgb(20%,80%,80%);fill-opacity:1;">
  <use xlink:href="#glyph0-4" x="205.734375" y="126.870117"/>
</g>
</g>
</svg>

<svg xmlns="http://www.w3.org/2000/svg" xmlns:xlink="http://www.w3.org/1999/xlink" width="300pt" height="300pt" viewBox="0 0 300 300"><defs><symbol overflow="visible"><path d="M.547 1.938V-7.75h5.5v9.688zm.625-.61h4.266v-8.47H1.171zm0 0"/></symbol><symbol overflow="visible" id="a"><path d="M4.328-7.28c-.78 0-1.406.296-1.875.89-.46.585-.687 1.382-.687 2.39 0 1.012.226 1.813.687 2.406.47.586 1.094.875 1.875.875.79 0 1.414-.288 1.875-.874.457-.593.688-1.394.688-2.406 0-1.008-.23-1.805-.687-2.39-.46-.594-1.086-.89-1.875-.89zm0-.892c1.125 0 2.024.383 2.703 1.14C7.708-6.28 8.048-5.27 8.048-4c0 1.262-.34 2.273-1.016 3.03C6.353-.22 5.454.157 4.33.157S2.3-.22 1.625-.97c-.668-.75-1-1.757-1-3.03 0-1.27.332-2.28 1-3.03.676-.76 1.578-1.142 2.703-1.142zm0 0"/></symbol><symbol overflow="visible" id="b"><path d="M1.078-8.016h1.47l3.546 6.704v-6.704h1.062V0H5.688L2.124-6.703V0H1.078zm0 0"/></symbol><symbol overflow="visible" id="c"><path d="M1.078-8.016h1.094v3.282H6.11v-3.282h1.077V0H6.11v-3.813H2.17V0H1.078zm0 0"/></symbol><symbol overflow="visible" id="d"><path d="M1.078-8.016h4.61v.907H2.171v2.36h3.172v.922H2.172V0H1.078zm0 0"/></symbol></defs><g><path fill="#fff" d="M0 0h300v300H0z"/><path d="M35.25 158.902l11.395-6.273" stroke-width="1.2" stroke="#000" stroke-miterlimit="10" fill="none"/><path d="M46.645 152.63l11.39-6.275M58.035 146.355l11.13 6.73" stroke-width="1.2" stroke="#f00" stroke-miterlimit="10" fill="none"/><path d="M69.164 153.086l11.133 6.726" stroke-width="1.2" stroke="#000" stroke-miterlimit="10" fill="none"/><path d="M54.035 139.855h9v13h-9zm0 0" fill="#fff"/><use xlink:href="#a" x="54.035" y="149.757" fill="#f00"/><path d="M80.297 159.813l22.785-12.547M103.082 147.266l11.13 6.73" stroke-width="1.2" stroke="#000" stroke-miterlimit="10" fill="none"/><path d="M114.21 153.996l11.13 6.73M125.34 160.727l11.394-6.274" stroke-width="1.2" stroke="#00f" stroke-miterlimit="10" fill="none"/><path d="M136.734 154.453l11.39-6.277" stroke-width="1.2" stroke="#000" stroke-miterlimit="10" fill="none"/><path d="M117.34 154.227h17v13h-17zm0 0" fill="#fff"/><g fill="#00f"><use xlink:href="#b" x="117.34" y="164.128"/><use xlink:href="#c" x="125.323" y="164.128"/></g><path d="M148.125 148.176l.266-13" stroke-width="1.2" stroke="#000" stroke-miterlimit="10" fill="none"/><path d="M148.39 135.176l.262-13.004" stroke-width="1.2" stroke="#00f" stroke-miterlimit="10" fill="none"/><path d="M154.297 145.7l.21-10.403" stroke-width="1.2" stroke="#000" stroke-miterlimit="10" fill="none"/><path d="M154.508 135.297l.21-10.402" stroke-width="1.2" stroke="#00f" stroke-miterlimit="10" fill="none"/><path d="M170.387 161.637l-22.262-13.46" stroke-width="1.2" stroke="#000" stroke-miterlimit="10" fill="none"/><path d="M148.652 122.172l11.395-6.274" stroke-width="1.2" stroke="#00f" stroke-miterlimit="10" fill="none"/><path d="M160.047 115.898l11.39-6.277" stroke-width="1.2" stroke="#000" stroke-miterlimit="10" fill="none"/><path d="M144.652 115.672h8v13h-8zm0 0" fill="#fff"/><use xlink:href="#b" x="144.652" y="125.573" fill="#00f"/><path d="M171.438 109.62l11.128 6.732" stroke-width="1.2" stroke="#000" stroke-miterlimit="10" fill="none"/><path d="M182.566 116.352l11.133 6.73" stroke-width="1.2" stroke="#00f" stroke-miterlimit="10" fill="none"/><path d="M170.496 116.207l8.906 5.383" stroke-width="1.2" stroke="#000" stroke-miterlimit="10" fill="none"/><path d="M179.402 121.59l8.903 5.383M193.7 123.082l-.266 13.004" stroke-width="1.2" stroke="#00f" stroke-miterlimit="10" fill="none"/><path d="M193.434 136.086l-.262 13.004" stroke-width="1.2" stroke="#000" stroke-miterlimit="10" fill="none"/><path d="M189.7 116.582h8v13h-8zm0 0" fill="#fff"/><use xlink:href="#b" x="189.699" y="126.483" fill="#00f"/><path d="M193.172 149.09l-22.785 12.547M187.94 144.98l-18.23 10.04M193.172 149.09l22.258 13.457M215.43 162.547l-.524 26.008M221.496 165.273l-.418 20.805M238.22 150l-22.79 12.547M214.906 188.555l22.258 13.46M237.164 202.016l22.785-12.55M236.492 195.398l18.227-10.04M259.95 189.465l.527-26.004M260.477 163.46L238.22 150M255.082 167.352l-17.805-10.77M238.22 150l.522-26.008M238.742 123.992l.266-13.004" stroke-width="1.2" stroke="#000" stroke-miterlimit="10" fill="none"/><path d="M239.008 110.988l.262-13.004" stroke-width="1.2" stroke="#3cc" stroke-miterlimit="10" fill="none"/><path d="M238.742 123.992l13.004.266" stroke-width="1.2" stroke="#000" stroke-miterlimit="10" fill="none"/><path d="M251.746 124.258l13.004.262" stroke-width="1.2" stroke="#3cc" stroke-miterlimit="10" fill="none"/><path d="M238.742 123.992l-13.004-.262" stroke-width="1.2" stroke="#000" stroke-miterlimit="10" fill="none"/><path d="M225.738 123.73l-13.004-.26" stroke-width="1.2" stroke="#3cc" stroke-miterlimit="10" fill="none"/><path d="M236.27 91.484h7v13h-7zm0 0" fill="#fff"/><use xlink:href="#d" x="236.27" y="101.386" fill="#3cc"/><path d="M261.75 118.02h7v13h-7zm0 0" fill="#fff"/><use xlink:href="#d" x="261.75" y="127.921" fill="#3cc"/><path d="M205.734 116.97h7v13h-7zm0 0" fill="#fff"/><use xlink:href="#d" x="205.734" y="126.87" fill="#3cc"/></g></svg>
